packages/foundations/assets/icons/functional/images/navigation/log_out_24.svg

<svg width="24" height="24" viewBox="0 0 24 24" fill="none" xmlns="http://www.w3.org/2000/svg">
<g clip-path="url(#clip0_187_59)">
<path fill-rule="evenodd" clip-rule="evenodd" d="M3.25 18C3.25 19.6562 4.5938 21 6.25 21H10.25C10.8125 21 11.25 20.5625 11.25 20C11.25 19.4375 10.8125 19 10.25 19H6.25C5.6875 19 5.25 18.5625 5.25 18V6C5.25 5.4375 5.6875 5 6.25 5H10.25C10.8125 5 11.25 4.5625 11.25 4C11.25 3.4375 10.8125 3 10.25 3H6.25C4.5938 3 3.25 4.3438 3.25 6V18ZM8.75 12C8.75 12.5312 9.1875 13 9.75 13H17.3438L15.0625 15.2812C14.875 15.4688 14.7812 15.75 14.7812 16C14.7812 16.5625 15.2188 17 15.75 17C16 17 16.2812 16.875 16.4688 16.6875L20.4688 12.7188C20.6562 12.5312 20.75 12.25 20.75 12C20.75 11.75 20.6562 11.4688 20.4688 11.2812L16.4688 7.3125C16.2812 7.0938 16 7 15.7812 7C15.5312 7 15.25 7.0938 15.0625 7.3125C14.875 7.5 14.7812 7.75 14.7812 8C14.7812 8.25 14.875 8.5 15.0625 8.7188L17.3438 11H9.75C9.1875 11 8.75 11.4375 8.75 12Z" fill="#1A1C1F"/>
</g>
<defs>
<clipPath id="clip0_187_59">
<rect width="24" height="24" fill="white"/>
</clipPath>
</defs>
</svg>

<svg xmlns="http://www.w3.org/2000/svg" width="24" height="24" fill="none"><g clip-path="url(#a)"><path fill="#1A1C1F" fill-rule="evenodd" d="M3.25 18a3 3 0 0 0 3 3h4c.563 0 1-.437 1-1s-.437-1-1-1h-4c-.562 0-1-.437-1-1V6c0-.562.438-1 1-1h4c.563 0 1-.437 1-1s-.437-1-1-1h-4a3 3 0 0 0-3 3zm5.5-6c0 .531.438 1 1 1h7.594l-2.282 2.281a1.04 1.04 0 0 0-.28.719c0 .563.437 1 .968 1 .25 0 .531-.125.719-.312l4-3.97c.187-.187.281-.468.281-.718s-.094-.531-.281-.719l-4-3.969a.95.95 0 0 0-1.406 0A.97.97 0 0 0 14.78 8c0 .25.094.5.281.719L17.345 11H9.75c-.562 0-1 .438-1 1" clip-rule="evenodd"/></g><defs><clipPath id="a"><path fill="#fff" d="M0 0h24v24H0z"/></clipPath></defs></svg>
